Numix-GalliumOS/16/mimetypes/application-vnd.nintendo.snes.rom.svg

<?xml version="1.0" encoding="UTF-8" standalone="no"?>
<svg
   xmlns:dc="http://purl.org/dc/elements/1.1/"
   xmlns:cc="http://creativecommons.org/ns#"
   xmlns:rdf="http://www.w3.org/1999/02/22-rdf-syntax-ns#"
   xmlns:svg="http://www.w3.org/2000/svg"
   xmlns="http://www.w3.org/2000/svg"
   xmlns:sodipodi="http://sodipodi.sourceforge.net/DTD/sodipodi-0.dtd"
   xmlns:inkscape="http://www.inkscape.org/namespaces/inkscape"
   width="16"
   height="16"
   viewBox="0 0 16 16"
   id="svg2"
   version="1.1"
   inkscape:version="0.91 r13725"
   sodipodi:docname="application-vnd.nintendo.snes.rom.svg">
  <metadata
     id="metadata16">
    <rdf:RDF>
      <cc:Work
         rdf:about="">
        <dc:format>image/svg+xml</dc:format>
        <dc:type
           rdf:resource="http://purl.org/dc/dcmitype/StillImage" />
      </cc:Work>
    </rdf:RDF>
  </metadata>
  <defs
     id="defs14" />
  <sodipodi:namedview
     pagecolor="#ffffff"
     bordercolor="#666666"
     borderopacity="1"
     objecttolerance="10"
     gridtolerance="10"
     guidetolerance="10"
     inkscape:pageopacity="0"
     inkscape:pageshadow="2"
     inkscape:window-width="1280"
     inkscape:window-height="998"
     id="namedview12"
     showgrid="true"
     inkscape:zoom="20.85965"
     inkscape:cx="11.14418"
     inkscape:cy="8.6021328"
     inkscape:window-x="0"
     inkscape:window-y="0"
     inkscape:window-maximized="1"
     inkscape:current-layer="svg2">
    <inkscape:grid
       type="xygrid"
       id="grid3004" />
  </sodipodi:namedview>
  <path
     style="fill:#a6a6a6;fill-opacity:1"
     d="M 2.667969,-4.456e-4 C 2.324219,-4.456e-4 2,0.3378124 2,0.6964471 L 2,15.303108 C 2,15.641365 2.34375,16 2.667969,16 l 10.664062,0 C 13.65625,16 14,15.641365 14,15.303108 L 14,3.9995542 9.9999995,-4.456e-4 z"
     id="path4-1"
     inkscape:connector-curvature="0"
     sodipodi:nodetypes="ssssssccs" />
  <path
     style="fill:#000000;fill-opacity:0.19599998"
     d="m 10.583223,3.3315852 0.0154,0.01953 0.04005,-0.01953 z m 0.02978,0.667969 3.387,3.664062 0,-3.664062 z"
     id="path6"
     inkscape:connector-curvature="0"
     sodipodi:nodetypes="cccccccc" />
  <path
     style="fill:#ffffff;fill-opacity:0.39200003"
     d="m 9.9999995,-4.456e-4 3.9963965,3.9999998 -3.383784,0 c -0.299099,0 -0.6126125,-0.317117 -0.6126125,-0.616216 z"
     id="path8"
     inkscape:connector-curvature="0"
     sodipodi:nodetypes="ccssc" />
  <path
     style="fill:#ffffff;fill-opacity:1;fill-rule:nonzero;stroke:none"
     d="M 7.999296,5 C 5.796453,5 4,6.791115 4,9 4,11.209025 5.796464,13 7.999296,13 10.203687,13 12,11.208885 12,9 12,6.790925 10.203114,5 7.999296,5 Z m 0,0.504757 c 1.9421858,0 3.506156,1.565198 3.506156,3.495243 0,1.929935 -1.563344,3.495243 -3.506156,3.495243 -1.941068,0 -3.504748,-1.565148 -3.504748,-3.495243 0,-1.929935 1.563692,-3.495243 3.504748,-3.495243 z M 8.1132604,6.003052 C 7.831013,6.003052 7.54874,6.11088 7.332395,6.326872 L 5.324657,8.332975 c -0.43269,0.431984 -0.43269,1.127254 0,1.559504 0.43269,0.431984 1.12904,0.431984 1.56173,0 L 8.8934225,7.886376 c 0.4326899,-0.431984 0.4326899,-1.127254 0,-1.559504 C 8.6776098,6.11088 8.3955076,6.003052 8.1132604,6.003052 Z m 0,0.157961 c 0.2423065,0 0.4847905,0.09234 0.6697156,0.277149 0.3703829,0.369625 0.3703829,0.968735 0,1.338359 -0.371448,0.369625 -0.970645,0.369625 -1.33943,0 -0.369318,-0.368558 -0.369318,-0.967668 0,-1.338359 C 7.628737,6.25335 7.870954,6.161013 8.1132604,6.161013 Z m 1.7847349,1.623406 c -0.2821142,0 -0.5645204,0.107828 -0.7808655,0.32382 L 7.108688,10.114342 c -0.43269,0.431984 -0.43269,1.127254 0,1.559505 0.43269,0.431983 1.1297444,0.431983 1.5624342,0 L 10.67886,9.668462 c 0.43269,-0.431984 0.43269,-1.128239 0,-1.560223 -0.216345,-0.215992 -0.498751,-0.32382 -0.7808647,-0.32382 z m 0,0.159397 c 0.2423067,0 0.4849607,0.09215 0.6704187,0.276432 0.369317,0.371756 0.369317,0.968016 0,1.337641 -0.370383,0.368559 -0.9695805,0.368559 -1.3394304,0 -0.3693174,-0.371757 -0.3693174,-0.968017 0,-1.337641 C 9.4136422,8.035969 9.6556887,7.943816 9.8979953,7.943816 Z m -3.7924733,0.2233 c 0.242307,0 0.484258,0.09234 0.669715,0.277149 0.369318,0.368559 0.369318,0.966951 0,1.337642 -0.372246,0.369624 -0.97074,0.369624 -1.338726,0 -0.370383,-0.369625 -0.370383,-0.968018 0,-1.337642 C 5.621169,8.259453 5.863216,8.167116 6.105522,8.167116 Z m 1.784735,1.781367 c 0.2419732,0 0.4834779,0.09234 0.6676045,0.27715 0.3703821,0.369624 0.3703821,0.968017 0,1.337641 -0.3693175,0.371757 -0.9683645,0.371757 -1.3366165,0 -0.370383,-0.368558 -0.370383,-0.966951 0,-1.337641 0.184659,-0.184813 0.427038,-0.27715 0.669012,-0.27715 z"
     id="path57"
     inkscape:connector-curvature="0" />
</svg>

<svg xmlns="http://www.w3.org/2000/svg" viewBox="0 0 16 16">
 <path d="m 2.668 0 c -0.344 0 -0.668 0.338 -0.668 0.697 l 0 14.607 c 0 0.338 0.344 0.697 0.668 0.697 l 10.664 0 c 0.324 0 0.668 -0.359 0.668 -0.697 l 0 -11.304 -4 -4 z" style="fill:#a6a6a6;fill-opacity:1"/>
 <path d="m 10.583 3.332 0.015 0.02 0.04 -0.02 z m 0.03 0.668 3.387 3.664 0 -3.664 z" style="fill:#000;fill-opacity:0.196"/>
 <path d="m 10 0 3.996 4 -3.384 0 c -0.299 0 -0.613 -0.317 -0.613 -0.616 z" style="fill:#fff;fill-opacity:0.392"/>
 <path d="m 7.999 5 c -2.203 0 -3.999 1.791 -3.999 4 0 2.209 1.796 4 3.999 4 2.204 0 4 -1.791 4 -4 0 -2.209 -1.797 -4 -4 -4 m 0 0.505 c 1.942 0 3.506 1.565 3.506 3.495 0 1.93 -1.563 3.495 -3.506 3.495 -1.941 0 -3.505 -1.565 -3.505 -3.495 0 -1.93 1.564 -3.495 3.505 -3.495 z m 0.114 0.498 c -0.282 0 -0.565 0.108 -0.781 0.324 l -2.01 2.01 c -0.433 0.432 -0.433 1.127 0 1.56 0.433 0.432 1.129 0.432 1.562 0 l 2.01 -2.01 c 0.433 -0.432 0.433 -1.127 0 -1.56 c -0.216 -0.216 -0.498 -0.324 -0.78 -0.324 m 0 0.158 c 0.242 0 0.485 0.092 0.67 0.277 0.37 0.37 0.37 0.969 0 1.338 -0.371 0.37 -0.971 0.37 -1.339 0 -0.369 -0.369 -0.369 -0.968 0 -1.338 c 0.185 -0.185 0.427 -0.277 0.67 -0.277 m 1.785 1.623 c -0.282 0 -0.565 0.108 -0.781 0.324 l -2.01 2.01 c -0.433 0.432 -0.433 1.127 0 1.56 0.433 0.432 1.13 0.432 1.562 0 l 2.01 -2.01 c 0.433 -0.432 0.433 -1.128 0 -1.56 -0.216 -0.216 -0.499 -0.324 -0.781 -0.324 z m 0 0.159 c 0.242 0 0.485 0.092 0.67 0.276 0.369 0.372 0.369 0.968 0 1.338 -0.37 0.369 -0.97 0.369 -1.339 0 -0.369 -0.372 -0.369 -0.968 0 -1.338 c 0.185 -0.184 0.427 -0.276 0.669 -0.276 m -3.792 0.223 c 0.242 0 0.484 0.092 0.67 0.277 0.369 0.369 0.369 0.967 0 1.338 -0.372 0.37 -0.971 0.37 -1.339 0 -0.37 -0.37 -0.37 -0.968 0 -1.338 c 0.185 -0.185 0.427 -0.277 0.669 -0.277 m 1.785 1.781 c 0.242 0 0.483 0.092 0.668 0.277 0.37 0.37 0.37 0.968 0 1.338 -0.369 0.372 -0.968 0.372 -1.337 0 -0.37 -0.369 -0.37 -0.967 0 -1.338 0.185 -0.185 0.427 -0.277 0.669 -0.277 z" style="fill:#fff;fill-opacity:1;stroke:none;fill-rule:nonzero"/>
</svg>
